source/img/logo_sok.svg

<svg height="15.99" viewBox="0 0 38.68 15.99" width="38.68" xmlns="http://www.w3.org/2000/svg"><g fill="#434343"><path d="m18.25 3a4.37 4.37 0 0 0 -3.25 1.48 5 5 0 0 0 -1.42 3.52 4.94 4.94 0 0 0 1.42 3.51 4.49 4.49 0 0 0 6.34.27l.27-.27a5 5 0 0 0 1.3-3.51 5 5 0 0 0 -1.36-3.52 4.36 4.36 0 0 0 -3.3-1.48m.13-3a7.25 7.25 0 0 1 5.42 2.35 7.85 7.85 0 0 1 2.26 5.65 7.8 7.8 0 0 1 -2.28 5.67 7.43 7.43 0 0 1 -5.53 2.33 7.44 7.44 0 0 1 -5.53-2.34 7.81 7.81 0 0 1 -2.29-5.66 7.72 7.72 0 0 1 2.3-5.67 7.64 7.64 0 0 1 5.65-2.33"/><path d="m4.2.09a4 4 0 0 0 -3.2 3.91c0 2.16 1.12 2.83 2.75 3.8l1.16.68a4.31 4.31 0 0 1 1.93 1.69 2 2 0 1 1 -3.84.77h-3a5 5 0 1 0 8.06-3.94 11.15 11.15 0 0 0 -1.24-.8l-.82-.52-1.46-.82a1 1 0 0 1 .35-1.86 1.39 1.39 0 0 1 .94.32l1.17.68 1.58-2.53-1.23-.74a4.2 4.2 0 0 0 -3.15-.64"/><path d="m37.13 0-3.76 6.61 5.31 9.39h-3.14l-5-8.8v8.8h-3v-16h3v6.08l3.46-6.08h3.14"/></g></svg>

<svg height="15.99" width="38.68" xmlns="http://www.w3.org/2000/svg"><path d="M18.25 3A4.37 4.37 0 0 0 15 4.48 5 5 0 0 0 13.58 8 4.94 4.94 0 0 0 15 11.51a4.49 4.49 0 0 0 6.34.27l.27-.27A5 5 0 0 0 22.91 8a5 5 0 0 0-1.36-3.52A4.36 4.36 0 0 0 18.25 3m.13-3a7.25 7.25 0 0 1 5.42 2.35A7.85 7.85 0 0 1 26.06 8a7.8 7.8 0 0 1-2.28 5.67A7.43 7.43 0 0 1 18.25 16a7.44 7.44 0 0 1-5.53-2.34A7.81 7.81 0 0 1 10.43 8a7.72 7.72 0 0 1 2.3-5.67A7.64 7.64 0 0 1 18.38 0M4.2.09A4 4 0 0 0 1 4c0 2.16 1.12 2.83 2.75 3.8l1.16.68a4.31 4.31 0 0 1 1.93 1.69 2 2 0 1 1-3.84.77H0A5 5 0 1 0 8.06 7a11.15 11.15 0 0 0-1.24-.8L6 5.68l-1.46-.82A1 1 0 0 1 4.89 3a1.39 1.39 0 0 1 .94.32L7 4l1.58-2.53L7.35.73A4.2 4.2 0 0 0 4.2.09M37.13 0l-3.76 6.61L38.68 16h-3.14l-5-8.8V16h-3V0h3v6.08L34 0h3.14" fill="#434343"/></svg>
